svg/u1f339.svg

<svg viewBox="0 0 128 128" xmlns="http://www.w3.org/2000/svg">
  <path d="M56.81,85.29l21.86,0.17c0,0-1.74,5.65-3.18,7.87c-2.35,3.6-3.52,5.44-4.52,9.13 c-1.55,5.68-1.42,10.05-1.42,10.05s1.21-0.42,2.68,0c1.79,0.51,2.76,1.7,2.6,2.43c-0.15,0.65-2.14,0.21-3.52,1.59 c-1.09,1.09-1.51,3.02-1.68,4.27c-0.17,1.26-0.34,2.85-2.68,3.18c-2.35,0.34-5.86,0.59-6.62-0.59c-0.75-1.17-0.34-21.61-0.34-21.61 L56.81,85.29z" fill="#307D31"/>
  <path d="M56.56,80.76c-0.42,0.75-10.32,2.53-10.32,2.53s-3.31,1.77-4.56,7.55 c-0.68,3.13-0.53,9.47-1.12,11.69c-0.84,3.18-4.36,5.03-4.19,5.78c0.17,0.75,3.24,0.7,5.61-0.34c5.36-2.35,6.3-7.21,8.04-11.39 c1.68-4.02,4.86-6.13,4.86-6.13s-0.75,2.92-0.43,6.14c0.27,2.77,1.14,6.3,0,9.73c-1.09,3.27-2.62,5.24-2.01,5.54 c0.46,0.22,5.92-0.33,8.1-5.11c2.41-5.28,2.58-9.61,4.02-12.71c1.59-3.43,4.62-4.89,4.62-4.89s2.15,1.26,4.78,4.94 c2.93,4.1,5.38,7.55,6.96,9.67c3.7,4.98,8.83,6.55,8.99,5.71c0.25-1.34-2.47-3.49-3.02-6.11c-1.35-6.45,0.5-9.54-1.03-14.49 c-2.2-7.15-7.39-7.28-9.19-7.62C76.25,81.19,56.56,80.76,56.56,80.76z" fill="#5C9823"/>
  <path d="M47.31,44.34c-1.13-1.01-17.87-13.21-17.87-13.21l-0.25-7.42c0,0-4.1-7.75,0.62-13.52 c4.1-5.01,9.57-3.59,9.57-3.59s2.74-3.45,7.52-3.69c6.11-0.31,9.09,4.83,9.09,4.83l27.55,4.53l15.47,10.06c0,0,2.29-0.74,4.19,0.6 c1.98,1.39,1.33,4.31,1.11,5.62c-0.21,1.25-20.65,17.56-20.65,17.56l2.14,31.96l-7.14,7.97c0,0-1,0.98-3.05,1.24 c-1.19,0.15-2.72-0.33-2.72-0.33l-4.45-12.78L47.31,44.34z" fill="#96010C"/>
  <path d="M83.15,6.86l-3.72,0.28l-2.61,2.19l0.93,4.21c0,0,0.12,3.15-2.36,4.66 c-2.48,1.51-7.35,3.99-7.35,3.99l-3.36,5.56c0,0-2.16-0.71-5.68-2.52c-3.29-1.7-7.5-5.58-7.5-5.58l-7.53-0.51 c0,0-1.44-0.13-2.65,1.15c-1.74,1.86-1.12,5.8,2.29,9.41c3.28,3.47,10.38,7.7,11.96,8.87c1.58,1.17,3.99,2.67,5.36,3.44 c1.32,0.74,2.9,1.8,3.59,1.67c0.69-0.14,1.71-2.49,4.94-4.76c3.23-2.27,6.39-4.19,11.55-5.98c5.16-1.79,10.11-3.85,11.62-4.81 c1.51-0.96-0.55-7.49-2.41-11.48S83.28,6.45,83.15,6.86z" fill="#AF0C1B"/>
  <path d="M65.07,23.98c-1.27,1.68-1.03,3.64-1.03,3.64s2.77,1.66,5.5,2.61c4.95,1.72,16.09,1.24,21.45-1.17 s7.98-4.49,8.8-7.01c0.96-2.96,1.76-8.94-4-13.55c-6.6-5.29-16.56-2.4-16.56-1.02s3.99,0.28,3.99,5.29s-4.4,8.04-8.87,8.66 C69.88,22.05,66.99,21.43,65.07,23.98z" fill="#DB132C"/>
  <path d="M42.24,19.65c0,0-0.51-2.02,1.17-3.64c2.54-2.48,5.78-3.78,7.63-5.78s4.48-5.79,10.93-6.67 c9.56-1.31,15.74,2.27,17.12,6.67s-1.24,5.91-3.92,5.98c-2.68,0.07-4.17-1.19-9.08-0.34c-8.32,1.44-11.21,5.91-11.96,6.33 c-0.76,0.41-3.23-1.03-6.6-1.93C45.1,19.62,43.34,19.78,42.24,19.65z" fill="#F71538"/>
  <path d="M69.62,48.38c0,0,1.7-5.65,7.25-9.23c5.56-3.58,9.61-3.67,16.68-6.88s9.51-5.32,10.64-6.06 c1.16-0.76,2.21-1.45,3.02-0.12c0.52,0.86-0.38,4.38-2.77,7.8c-2.44,3.49-4.84,5.41-6.66,11.42c-2.41,7.93,2.22,15.14-2.72,27.88 c-1.6,4.12-5.35,7.89-8.84,10.34c-3.49,2.45-8.52,3-8.52,3s1.79-1.25,2.77-5.85c0.48-2.26,1.2-6.27,0.65-10.54 C79.55,57.93,69.62,48.38,69.62,48.38z" fill="#CD0E1F"/>
  <path d="M31.74,46.68c0.12,2.68-1.14,12.43,0.49,20.26c1.28,6.16,7.62,17.05,19.49,20.25 c10.92,2.95,22.61-0.09,22.61-0.09s4.41-7.45,2.18-18.31c-2.43-11.84-14.26-20.64-27.9-27.38c-16.39-8.1-19.36-17.86-19.36-17.86 s-5.39-1.41-6.74,3.44C20.44,34.43,31.56,42.63,31.74,46.68z" fill="#E2122D"/>
</svg>

<svg viewBox="0 0 128 128" xmlns="http://www.w3.org/2000/svg">
  <defs/>
  <path d="M56.81,85.29 L78.67,85.46 C78.67,85.46 76.93,91.11 75.49,93.33 C73.14,96.93 71.97,98.77 70.97,102.46 C69.42,108.14 69.55,112.51 69.55,112.51 C69.55,112.51 70.76,112.09 72.23,112.51 C74.02,113.02 74.99,114.21 74.83,114.94 C74.68,115.59 72.69,115.15 71.31,116.53 C70.22,117.62 69.8,119.55 69.63,120.8 C69.46,122.06 69.29,123.65 66.95,123.98 C64.6,124.32 61.09,124.57 60.33,123.39 C59.58,122.22 59.99,101.78 59.99,101.78 L56.81,85.29 Z" fill="#307D31"/>
  <path d="M56.56,80.76 C56.14,81.51 46.24,83.29 46.24,83.29 C46.24,83.29 42.93,85.06 41.68,90.84 C41,93.97 41.15,100.31 40.56,102.53 C39.72,105.71 36.2,107.56 36.37,108.31 C36.54,109.06 39.61,109.01 41.98,107.97 C47.34,105.62 48.28,100.76 50.02,96.58 C51.7,92.56 54.88,90.45 54.88,90.45 C54.88,90.45 54.13,93.37 54.45,96.59 C54.72,99.36 55.59,102.89 54.45,106.32 C53.36,109.59 51.83,111.56 52.44,111.86 C52.9,112.08 58.36,111.53 60.54,106.75 C62.95,101.47 63.12,97.14 64.56,94.04 C66.15,90.61 69.18,89.15 69.18,89.15 C69.18,89.15 71.33,90.41 73.96,94.09 C76.89,98.19 79.34,101.64 80.92,103.76 C84.62,108.74 89.75,110.31 89.91,109.47 C90.16,108.13 87.44,105.98 86.89,103.36 C85.54,96.91 87.39,93.82 85.86,88.87 C83.66,81.72 78.47,81.59 76.67,81.25 C76.25,81.19 56.56,80.76 56.56,80.76 Z" fill="#5C9823"/>
  <path d="M47.31,44.34 C46.18,43.33 29.44,31.13 29.44,31.13 L29.19,23.71 C29.19,23.71 25.09,15.96 29.81,10.19 C33.91,5.18 39.38,6.6 39.38,6.6 C39.38,6.6 42.12,3.15 46.9,2.91 C53.01,2.6 55.99,7.74 55.99,7.74 L83.54,12.27 L99.01,22.33 C99.01,22.33 101.3,21.59 103.2,22.93 C105.18,24.32 104.53,27.24 104.31,28.55 C104.1,29.8 83.66,46.11 83.66,46.11 L85.8,78.07 L78.66,86.04 C78.66,86.04 77.66,87.02 75.61,87.28 C74.42,87.43 72.89,86.95 72.89,86.95 L68.44,74.17 L47.31,44.34 Z" fill="#96010C"/>
  <path d="M83.15,6.86 L79.43,7.14 L76.82,9.33 L77.75,13.54 C77.75,13.54 77.87,16.69 75.39,18.2 C72.91,19.71 68.04,22.19 68.04,22.19 L64.68,27.75 C64.68,27.75 62.52,27.04 59,25.23 C55.71,23.53 51.5,19.65 51.5,19.65 L43.97,19.14 C43.97,19.14 42.53,19.01 41.32,20.29 C39.58,22.15 40.2,26.09 43.61,29.7 C46.89,33.17 53.99,37.4 55.57,38.57 C57.15,39.74 59.56,41.24 60.93,42.01 C62.25,42.75 63.83,43.81 64.52,43.68 C65.21,43.54 66.23,41.19 69.46,38.92 C72.69,36.65 75.85,34.73 81.01,32.94 C86.17,31.15 91.12,29.09 92.63,28.13 C94.14,27.17 92.08,20.64 90.22,16.65 C88.36,12.66 83.28,6.45 83.15,6.86 Z" fill="#AF0C1B"/>
  <path d="M65.07,23.98 C63.8,25.66 64.04,27.62 64.04,27.62 C64.04,27.62 66.81,29.28 69.54,30.23 C74.49,31.95 85.63,31.47 90.99,29.06 C96.35,26.65 98.97,24.57 99.79,22.05 C100.75,19.09 101.55,13.11 95.79,8.5 C89.19,3.21 79.23,6.1 79.23,7.48 C79.23,8.86 83.22,7.76 83.22,12.77 C83.22,17.78 78.82,20.81 74.35,21.43 C69.88,22.05 66.99,21.43 65.07,23.98 Z" fill="#DB132C"/>
  <path d="M42.24,19.65 C42.24,19.65 41.73,17.63 43.41,16.01 C45.95,13.53 49.19,12.23 51.04,10.23 C52.89,8.23 55.52,4.44 61.97,3.56 C71.53,2.25 77.71,5.83 79.09,10.23 C80.47,14.63 77.85,16.14 75.17,16.21 C72.49,16.28 71,15.02 66.09,15.87 C57.77,17.31 54.88,21.78 54.13,22.2 C53.37,22.61 50.9,21.17 47.53,20.27 C45.1,19.62 43.34,19.78 42.24,19.65 Z" fill="#F71538"/>
  <path d="M69.62,48.38 C69.62,48.38 71.32,42.73 76.87,39.15 C82.43,35.57 86.48,35.48 93.55,32.27 C100.62,29.06 103.06,26.95 104.19,26.21 C105.35,25.45 106.4,24.76 107.21,26.09 C107.73,26.95 106.83,30.47 104.44,33.89 C102,37.38 99.6,39.3 97.78,45.31 C95.37,53.24 100,60.45 95.06,73.19 C93.46,77.31 89.71,81.08 86.22,83.53 C82.73,85.98 77.7,86.53 77.7,86.53 C77.7,86.53 79.49,85.28 80.47,80.68 C80.95,78.42 81.67,74.41 81.12,70.14 C79.55,57.93 69.62,48.38 69.62,48.38 Z" fill="#CD0E1F"/>
  <path d="M31.74,46.68 C31.86,49.36 30.6,59.11 32.23,66.94 C33.51,73.1 39.85,83.99 51.72,87.19 C62.64,90.14 74.33,87.1 74.33,87.1 C74.33,87.1 78.74,79.65 76.51,68.79 C74.08,56.95 62.25,48.15 48.61,41.41 C32.22,33.31 29.25,23.55 29.25,23.55 C29.25,23.55 23.86,22.14 22.51,26.99 C20.44,34.43 31.56,42.63 31.74,46.68 Z" fill="#E2122D"/>
</svg>
